X:82
T:Capt'n Lockyer. ThoH.082
Q:1/4=100
M:2/4
L:1/8
B:Thompson's Compleat Collection of 120 Favourite Hornpipes.
Z:Village Music Project, Simon Wilson 2016
O:England.
K:A
AcTc2({Bc})|dBTB2({AB})|cABG|AECA,|AcTB2({Bc})|dBTB2({AB})|cABG|A2A,2:|
|:ecAc|ef=ge|fdcd|AFED|f^dBd|fgaf|gef^d|e4|
gbeg|fadf|ecac|BGFE|FAGB|AcBd|cABG|A4:|

